; generated by Slic3r 1.3.1-dev on 2019-06-21 at 23:22:00

; external perimeters extrusion width = 0.44mm (2.78mm^3/s)
; perimeters extrusion width = 0.40mm (7.14mm^3/s)
; infill extrusion width = 0.50mm (10.97mm^3/s)
; solid infill extrusion width = 0.60mm (6.68mm^3/s)
; top infill extrusion width = 0.40mm (2.14mm^3/s)

M107
M104 S230 ; set temperature
G28 ; home all axes
G1 X-10 Y50 Z20 F10000
; Filament gcode

M109 S230 ; set temperature and wait for it to be reached
G21 ; set units to millimeters
G90 ; use absolute coordinates
M82 ; use absolute distances for extrusion
G92 E0
G1 E-6.00000 F3000.00000
G92 E0
G1 Z1.000 F30000.000
G1 X25.858 Y55.961 F30000.000
G1 Z0.300 F30000.000
G1 E6.00000 F3000.00000
G1 F2100
G1 X26.644 Y55.700 E6.05534
G1 X27.198 Y55.567 E6.09339
G1 X27.679 Y55.483 E6.12598
G1 X28.193 Y55.451 E6.16044
G1 X121.807 Y55.451 E12.41433
G1 X122.322 Y55.483 E12.44879
G1 X122.802 Y55.567 E12.48137
G1 X123.356 Y55.700 E12.51943
G1 X123.907 Y55.873 E12.55800
G1 X124.142 Y55.961 E12.57477
G1 X124.606 Y56.179 E12.60906
G1 X125.067 Y56.469 E12.64537
G1 X125.515 Y56.837 E12.68414
G1 X125.900 Y57.248 E12.72177
G1 X126.220 Y57.691 E12.75825
G1 X126.482 Y58.172 E12.79485
G1 X126.671 Y58.648 E12.82907
G1 X126.807 Y59.168 E12.86501
G1 X126.878 Y59.716 E12.90188
G1 X126.888 Y89.999 E14.92494
G1 X126.878 Y90.284 E14.94404
G1 X126.813 Y90.800 E14.97876
G1 X126.671 Y91.352 E15.01684
G1 X126.469 Y91.858 E15.05322
G1 X126.220 Y92.309 E15.08767
G1 X125.900 Y92.752 E15.12415
G1 X125.514 Y93.163 E15.16181
G1 X125.067 Y93.531 E15.20055
G1 X124.606 Y93.821 E15.23687
G1 X124.142 Y94.040 E15.27119
G1 X123.641 Y94.216 E15.30666
G1 X122.802 Y94.433 E15.36453
G1 X122.321 Y94.517 E15.39714
G1 X121.807 Y94.549 E15.43158
G1 X28.193 Y94.549 E21.68548
G1 X27.679 Y94.517 E21.71992
G1 X27.198 Y94.433 E21.75252
G1 X26.644 Y94.300 E21.79055
G1 X26.093 Y94.127 E21.82914
G1 X25.858 Y94.039 E21.84590
G1 X25.394 Y93.821 E21.88020
G1 X24.904 Y93.510 E21.91893
G1 X24.460 Y93.139 E21.95759
G1 X24.099 Y92.751 E21.99299
G1 X23.798 Y92.337 E22.02720
G1 X23.531 Y91.857 E22.06392
G1 X23.319 Y91.320 E22.10245
G1 X23.187 Y90.798 E22.13841
G1 X23.122 Y90.284 E22.17303
G1 X23.112 Y89.998 E22.19214
G1 X23.122 Y59.716 E24.21519
G1 X23.193 Y59.170 E24.25197
G1 X23.329 Y58.648 E24.28796
G1 X23.531 Y58.143 E24.32431
G1 X23.798 Y57.663 E24.36102
G1 X24.120 Y57.224 E24.39739
G1 X24.460 Y56.861 E24.43062
G1 X24.659 Y56.682 E24.44850
G1 X24.934 Y56.468 E24.47175
G1 X25.363 Y56.196 E24.50569
G1 X25.803 Y55.986 E24.53831
G1 X26.055 Y56.459 F30000.000
G1 F2100
G1 X26.777 Y56.219 E24.58915
G1 X27.321 Y56.088 E24.62651
G1 X27.746 Y56.015 E24.65534
G1 X28.193 Y55.986 E24.68526
G1 X121.807 Y55.986 E30.93916
G1 X122.254 Y56.015 E30.96908
G1 X122.679 Y56.088 E30.99791
G1 X123.223 Y56.219 E31.03527
G1 X123.736 Y56.381 E31.07123
G1 X123.945 Y56.459 E31.08612
G1 X124.348 Y56.648 E31.11589
G1 X124.752 Y56.902 E31.14773
G1 X125.147 Y57.227 E31.18193
G1 X125.488 Y57.590 E31.21520
G1 X125.768 Y57.978 E31.24716
G1 X125.998 Y58.400 E31.27923
G1 X126.161 Y58.813 E31.30895
G1 X126.281 Y59.269 E31.34044
G1 X126.344 Y59.749 E31.37275
G1 X126.352 Y89.999 E33.39360
G1 X126.344 Y90.251 E33.41048
G1 X126.287 Y90.699 E33.44063
G1 X126.162 Y91.187 E33.47427
G1 X125.984 Y91.630 E33.50615
G1 X125.768 Y92.022 E33.53607
G1 X125.488 Y92.410 E33.56804
G1 X125.147 Y92.773 E33.60133
G1 X124.752 Y93.098 E33.63549
G1 X124.348 Y93.352 E33.66734
G1 X123.945 Y93.542 E33.69714
G1 X123.470 Y93.708 E33.73074
G1 X122.679 Y93.911 E33.78530
G1 X122.254 Y93.985 E33.81415
G1 X121.807 Y94.014 E33.84406
G1 X28.193 Y94.014 E40.09796
G1 X27.746 Y93.985 E40.12787
G1 X27.321 Y93.911 E40.15672
G1 X26.777 Y93.782 E40.19405
G1 X26.264 Y93.619 E40.23002
G1 X26.055 Y93.541 E40.24491
G1 X25.652 Y93.352 E40.27469
G1 X25.219 Y93.077 E40.30896
G1 X24.828 Y92.749 E40.34303
G1 X24.511 Y92.409 E40.37406
G1 X24.249 Y92.050 E40.40377
G1 X24.016 Y91.629 E40.43594
G1 X23.828 Y91.155 E40.46997
G1 X23.713 Y90.698 E40.50149
G1 X23.656 Y90.251 E40.53155
G1 X23.648 Y89.998 E40.54845
G1 X23.656 Y59.749 E42.56929
G1 X23.719 Y59.270 E42.60152
G1 X23.838 Y58.814 E42.63305
G1 X24.016 Y58.371 E42.66491
G1 X24.250 Y57.950 E42.69707
G1 X24.532 Y57.566 E42.72895
G1 X24.828 Y57.251 E42.75780
G1 X25.006 Y57.090 E42.77383
G1 X25.248 Y56.902 E42.79434
G1 X25.621 Y56.665 E42.82382
G1 X26.001 Y56.484 E42.85192
G1 X26.343 Y57.190 F30000.000
G1 F2100
G1 X27.061 Y56.958 E42.90841
G1 X27.716 Y56.811 E42.95863
G1 X28.106 Y56.773 E42.98793
G1 X121.894 Y56.773 E50.00658
G1 X122.428 Y56.837 E50.04685
G1 X123.076 Y56.993 E50.09669
G1 X123.520 Y57.138 E50.13165
G1 X123.894 Y57.296 E50.16201
G1 X124.221 Y57.488 E50.19041
G1 X124.582 Y57.775 E50.22492
G1 X124.938 Y58.159 E50.26415
G1 X125.151 Y58.473 E50.29257
G1 X125.387 Y58.974 E50.33394
G1 X125.493 Y59.334 E50.36202
G1 X125.564 Y59.877 E50.40305
G1 X125.566 Y90.040 E52.66030
G1 X125.531 Y90.464 E52.69216
G1 X125.493 Y90.666 E52.70755
G1 X125.387 Y91.026 E52.73562
G1 X125.152 Y91.526 E52.77699
G1 X125.041 Y91.701 E52.79244
G1 X124.809 Y91.998 E52.82064
G1 X124.444 Y92.345 E52.85829
G1 X124.075 Y92.604 E52.89207
G1 X123.734 Y92.779 E52.92073
G1 X123.076 Y93.007 E52.97292
G1 X122.428 Y93.163 E53.02278
G1 X121.894 Y93.227 E53.06301
G1 X28.106 Y93.227 E60.08166
G1 X27.572 Y93.163 E60.12189
G1 X26.924 Y93.007 E60.17176
G1 X26.480 Y92.862 E60.20673
G1 X26.106 Y92.704 E60.23714
G1 X25.639 Y92.410 E60.27843
G1 X25.306 Y92.120 E60.31150
G1 X24.959 Y91.701 E60.35219
G1 X24.764 Y91.373 E60.38070
G1 X24.676 Y91.187 E60.39614
G1 X24.550 Y90.831 E60.42439
G1 X24.469 Y90.464 E60.45255
G1 X24.434 Y90.040 E60.48438
G1 X24.436 Y59.876 E62.74168
G1 X24.507 Y59.334 E62.78258
G1 X24.613 Y58.974 E62.81068
G1 X24.764 Y58.626 E62.83905
G1 X24.959 Y58.299 E62.86756
G1 X25.191 Y58.003 E62.89570
G1 X25.556 Y57.655 E62.93341
G1 X25.925 Y57.395 E62.96720
G1 X26.288 Y57.212 E62.99761
G1 X26.564 Y57.748 F30000.000
G1 F2100
G1 X27.202 Y57.541 E63.04785
G1 X27.695 Y57.425 E63.08574
G1 X28.125 Y57.373 E63.11816
G1 X121.875 Y57.373 E70.13397
G1 X122.306 Y57.425 E70.16644
G1 X122.916 Y57.571 E70.21340
G1 X123.321 Y57.704 E70.24532
G1 X123.621 Y57.830 E70.26965
G1 X123.883 Y57.984 E70.29243
G1 X124.176 Y58.216 E70.32038
G1 X124.465 Y58.528 E70.35214
G1 X124.635 Y58.779 E70.37489
G1 X124.822 Y59.177 E70.40776
G1 X124.907 Y59.465 E70.43024
G1 X124.964 Y59.904 E70.46340
G1 X124.966 Y90.031 E72.71794
G1 X124.938 Y90.370 E72.74340
G1 X124.822 Y90.823 E72.77840
G1 X124.635 Y91.221 E72.81128
G1 X124.359 Y91.600 E72.84642
G1 X124.065 Y91.880 E72.87679
G1 X123.770 Y92.088 E72.90379
G1 X123.496 Y92.228 E72.92678
G1 X122.916 Y92.429 E72.97276
G1 X122.305 Y92.575 E73.01974
G1 X121.875 Y92.627 E73.05218
G1 X28.125 Y92.627 E80.06798
G1 X27.695 Y92.575 E80.10042
G1 X27.084 Y92.429 E80.14741
G1 X26.679 Y92.296 E80.17933
G1 X26.379 Y92.169 E80.20371
G1 X26.000 Y91.931 E80.23716
G1 X25.731 Y91.696 E80.26394
G1 X25.455 Y91.363 E80.29628
G1 X25.299 Y91.101 E80.31910
G1 X25.126 Y90.664 E80.35428
G1 X25.061 Y90.370 E80.37683
G1 X25.034 Y90.031 E80.40226
G1 X25.036 Y59.904 E82.65684
G1 X25.093 Y59.466 E82.68990
G1 X25.178 Y59.177 E82.71240
G1 X25.299 Y58.899 E82.73511
G1 X25.455 Y58.637 E82.75793
G1 X25.641 Y58.400 E82.78046
G1 X25.935 Y58.120 E82.81087
G1 X26.231 Y57.912 E82.83788
G1 X26.508 Y57.770 E82.86119
G1 X26.784 Y58.306 F30000.000
G1 F2100
G1 X27.343 Y58.124 E82.90519
G1 X27.817 Y58.012 E82.94167
G1 X28.144 Y57.973 E82.96631
G1 X121.856 Y57.973 E89.97926
G1 X122.183 Y58.012 E90.00394
G1 X122.810 Y58.165 E90.05225
G1 X123.258 Y58.323 E90.08779
G1 X123.464 Y58.429 E90.10509
G1 X123.685 Y58.585 E90.12532
G1 X123.909 Y58.797 E90.14840
G1 X124.118 Y59.085 E90.17509
G1 X124.221 Y59.289 E90.19218
G1 X124.321 Y59.596 E90.21635
G1 X124.365 Y59.931 E90.24164
G1 X124.366 Y90.022 E92.49347
G1 X124.346 Y90.276 E92.51253
G1 X124.257 Y90.620 E92.53912
G1 X124.118 Y90.915 E92.56350
G1 X123.909 Y91.203 E92.59019
G1 X123.685 Y91.415 E92.61326
G1 X123.464 Y91.571 E92.63349
G1 X123.161 Y91.716 E92.65863
G1 X122.756 Y91.851 E92.69056
G1 X122.183 Y91.988 E92.73466
G1 X121.856 Y92.027 E92.75931
G1 X28.144 Y92.027 E99.77226
G1 X27.817 Y91.988 E99.79692
G1 X27.190 Y91.835 E99.84525
G1 X26.741 Y91.677 E99.88081
G1 X26.536 Y91.571 E99.89809
G1 X26.315 Y91.415 E99.91832
G1 X26.091 Y91.203 E99.94143
G1 X25.882 Y90.915 E99.96809
G1 X25.743 Y90.620 E99.99249
G1 X25.654 Y90.275 E100.01909
G1 X25.634 Y90.022 E100.03814
G1 X25.635 Y59.931 E102.28999
G1 X25.679 Y59.597 E102.31521
G1 X25.743 Y59.380 E102.33211
G1 X25.834 Y59.171 E102.34916
G1 X25.952 Y58.975 E102.36628
G1 X26.091 Y58.797 E102.38320
G1 X26.315 Y58.585 E102.40632
G1 X26.536 Y58.429 E102.42655
G1 X26.728 Y58.329 E102.44275
G1 X27.004 Y58.864 F30000.000
G1 F2100
G1 X27.475 Y58.710 E102.47982
G1 X27.940 Y58.600 E102.51558
G1 X28.163 Y58.573 E102.53244
G1 X121.837 Y58.573 E109.54254
G1 X122.061 Y58.600 E109.55942
G1 X122.630 Y58.738 E109.60322
G1 X122.947 Y58.845 E109.62832
G1 X123.158 Y58.946 E109.64581
G1 X123.305 Y59.049 E109.65926
G1 X123.459 Y59.194 E109.67506
G1 X123.602 Y59.391 E109.69329
G1 X123.670 Y59.528 E109.70470
G1 X123.735 Y59.728 E109.72045
G1 X123.765 Y59.959 E109.73787
G1 X123.766 Y90.013 E111.98700
G1 X123.753 Y90.182 E111.99966
G1 X123.692 Y90.417 E112.01784
G1 X123.602 Y90.609 E112.03371
G1 X123.459 Y90.806 E112.05195
G1 X123.276 Y90.973 E112.07049
G1 X123.075 Y91.100 E112.08825
G1 X122.596 Y91.272 E112.12635
G1 X122.061 Y91.400 E112.16757
G1 X121.837 Y91.427 E112.18443
G1 X28.163 Y91.427 E119.19454
G1 X27.939 Y91.400 E119.21140
G1 X27.370 Y91.262 E119.25521
G1 X27.053 Y91.155 E119.28031
G1 X26.842 Y91.054 E119.29780
G1 X26.695 Y90.951 E119.31125
G1 X26.541 Y90.806 E119.32707
G1 X26.398 Y90.609 E119.34528
G1 X26.308 Y90.417 E119.36117
G1 X26.247 Y90.181 E119.37936
G1 X26.234 Y90.013 E119.39201
G1 X26.234 Y59.987 E121.63899
G1 X26.279 Y59.671 E121.66290
G1 X26.369 Y59.444 E121.68115
G1 X26.448 Y59.313 E121.69259
G1 X26.541 Y59.194 E121.70390
G1 X26.695 Y59.049 E121.71972
G1 X26.949 Y58.888 E121.74222
G1 E115.74222 F3000.00000
G92 E0
G1 Z1.300 F30000.000
G1 X19.650 Y59.686 F30000.000
G1 X26.873 Y90.214 F30000.000
G1 Z0.300 F30000.000
G1 E6.00000 F3000.00000
G1 F2100
G1 X26.834 Y90.004 E6.01597
G1 X26.834 Y59.996 E8.26159
G1 X26.881 Y59.766 E8.27918
G1 X27.006 Y59.576 E8.29621
G1 X27.197 Y59.435 E8.31401
G1 X27.551 Y59.310 E8.34209
G1 X28.182 Y59.173 E8.39041
G1 X121.818 Y59.173 E15.39767
G1 X122.437 Y59.306 E15.44504
G1 X122.803 Y59.435 E15.47407
G1 X123.009 Y59.591 E15.49344
G1 X123.096 Y59.716 E15.50486
G1 X123.144 Y59.838 E15.51465
G1 X123.166 Y59.996 E15.52659
G1 X123.166 Y90.004 E17.77222
G1 X123.119 Y90.234 E17.78981
G1 X122.994 Y90.424 E17.80685
G1 X122.803 Y90.565 E17.82464
G1 X122.449 Y90.690 E17.85272
G1 X121.818 Y90.827 E17.90104
G1 X28.182 Y90.827 E24.90830
G1 X27.564 Y90.694 E24.95566
G1 X27.218 Y90.575 E24.98304
G1 X27.006 Y90.424 E25.00248
G1 X26.897 Y90.268 E25.01670
G1 X27.491 Y89.983 F30000.000
G1 F2100
G1 X27.483 Y60.018 E27.01855
G1 X27.738 Y59.932 E27.03647
G1 X28.227 Y59.822 E27.06997
G1 X121.831 Y59.829 E33.32325
G1 X122.260 Y59.932 E33.35269
G1 X122.517 Y60.020 E33.37084
G1 X122.517 Y89.982 E35.37250
G1 X122.262 Y90.068 E35.39042
G1 X121.773 Y90.178 E35.42392
G1 X28.227 Y90.178 E41.67334
G1 X27.738 Y90.068 E41.70678
G1 X27.548 Y90.003 E41.72022
G1 X27.720 Y89.655 F30000.000
G1 X28.027 Y89.584 F30000.000
G1 F2100
G1 X28.019 Y60.418 E43.66866
G1 X28.286 Y60.358 E43.68697
G1 X121.768 Y60.365 E49.93207
G1 X121.981 Y60.416 E49.94670
G1 X121.981 Y89.582 E51.89516
G1 X121.714 Y89.642 E51.91348
G1 X28.286 Y89.642 E58.15493
G1 X28.085 Y89.597 E58.16869
G1 E52.16869 F3000.00000
G92 E0
G1 Z1.300 F30000.000
G1 X69.915 Y76.308 F30000.000
G1 Z0.300 F30000.000
G1 E6.00000 F3000.00000
G1 F2100
G1 X69.795 Y75.732 E6.03934
G1 X69.749 Y75.000 E6.08831
G1 X69.791 Y74.342 E6.13236
G1 X69.914 Y73.694 E6.17641
G1 X70.118 Y73.067 E6.22046
G1 X70.399 Y72.470 E6.26451
G1 X70.752 Y71.914 E6.30856
G1 X71.172 Y71.406 E6.35261
G1 X71.653 Y70.954 E6.39666
G1 X72.168 Y70.580 E6.43916
G1 X72.764 Y70.249 E6.48471
G1 X73.377 Y70.006 E6.52880
G1 X74.016 Y69.842 E6.57285
G1 X74.670 Y69.760 E6.61690
G1 X75.330 Y69.760 E6.66095
G1 X75.984 Y69.842 E6.70500
G1 X76.623 Y70.006 E6.74905
G1 X77.236 Y70.249 E6.79311
G1 X77.813 Y70.567 E6.83716
G1 X78.347 Y70.954 E6.88121
G1 X78.828 Y71.406 E6.92530
G1 X79.260 Y71.933 E6.97085
G1 X79.601 Y72.470 E7.01335
G1 X79.882 Y73.067 E7.05740
G1 X80.085 Y73.692 E7.10129
G1 X80.205 Y74.268 E7.14062
G1 X80.251 Y75.000 E7.18959
G1 X80.209 Y75.658 E7.23364
G1 X80.086 Y76.306 E7.27769
G1 X79.882 Y76.933 E7.32174
G1 X79.601 Y77.530 E7.36580
G1 X79.248 Y78.086 E7.40985
G1 X78.828 Y78.594 E7.45390
G1 X78.347 Y79.046 E7.49795
G1 X77.813 Y79.433 E7.54200
G1 X77.236 Y79.751 E7.58605
G1 X76.623 Y79.994 E7.63010
G1 X75.984 Y80.158 E7.67415
G1 X75.330 Y80.240 E7.71820
G1 X74.670 Y80.240 E7.76225
G1 X74.016 Y80.158 E7.80630
G1 X73.377 Y79.994 E7.85035
G1 X72.764 Y79.751 E7.89440
G1 X72.187 Y79.433 E7.93845
G1 X71.653 Y79.046 E7.98250
G1 X71.172 Y78.594 E8.02660
G1 X70.740 Y78.067 E8.07215
G1 X70.399 Y77.530 E8.11464
G1 X70.118 Y76.933 E8.15869
G1 X69.934 Y76.365 E8.19857
G1 X69.915 Y76.308 F30000.000
G1 X69.406 Y76.474 F30000.000
G1 F2100
G1 X69.263 Y75.803 E8.24437
G1 X69.213 Y75.000 E8.29813
G1 X69.258 Y74.275 E8.34668
G1 X69.394 Y73.561 E8.39523
G1 X69.619 Y72.870 E8.44379
G1 X69.928 Y72.212 E8.49234
G1 X70.318 Y71.598 E8.54089
G1 X70.781 Y71.038 E8.58945
G1 X71.311 Y70.541 E8.63800
G1 X71.879 Y70.128 E8.68492
G1 X72.534 Y69.764 E8.73497
G1 X73.212 Y69.496 E8.78365
G1 X73.916 Y69.315 E8.83220
G1 X74.637 Y69.224 E8.88075
G1 X75.363 Y69.224 E8.92931
G1 X76.084 Y69.315 E8.97786
G1 X76.788 Y69.496 E9.02641
G1 X77.464 Y69.763 E9.07497
G1 X78.101 Y70.114 E9.12352
G1 X78.689 Y70.541 E9.17207
G1 X79.220 Y71.040 E9.22075
G1 X79.695 Y71.619 E9.27080
G1 X80.072 Y72.212 E9.31772
G1 X80.381 Y72.870 E9.36627
G1 X80.603 Y73.554 E9.41437
G1 X80.737 Y74.197 E9.45821
G1 X80.787 Y75.000 E9.51197
G1 X80.742 Y75.725 E9.56053
G1 X80.606 Y76.439 E9.60908
G1 X80.381 Y77.130 E9.65763
G1 X80.072 Y77.788 E9.70619
G1 X79.682 Y78.402 E9.75474
G1 X79.219 Y78.962 E9.80329
G1 X78.689 Y79.459 E9.85185
G1 X78.101 Y79.886 E9.90040
G1 X77.464 Y80.237 E9.94895
G1 X76.788 Y80.504 E9.99751
G1 X76.084 Y80.685 E10.04606
G1 X75.363 Y80.776 E10.09461
G1 X74.637 Y80.776 E10.14316
G1 X73.916 Y80.685 E10.19172
G1 X73.212 Y80.504 E10.24027
G1 X72.536 Y80.237 E10.28882
G1 X71.899 Y79.886 E10.33738
G1 X71.311 Y79.459 E10.38593
G1 X70.780 Y78.960 E10.43461
G1 X70.305 Y78.381 E10.48466
G1 X69.928 Y77.788 E10.53158
G1 X69.619 Y77.130 E10.58013
G1 X69.424 Y76.531 E10.62226
G1 E4.62226 F3000.00000
G92 E0
G1 Z1.300 F30000.000
G1 X69.698 Y71.544 F30000.000
G1 Z0.300 F30000.000
G1 E6.00000 F3000.00000
G1 F2100
G1 X69.827 Y71.340 E6.01622
G1 X70.333 Y70.728 E6.06957
G1 X70.912 Y70.184 E6.12292
G1 X71.442 Y69.799 E6.16692
G1 X80.401 Y60.841 E7.01797
G1 X81.162 Y60.841 E7.06913
G1 X72.942 Y69.061 E7.85005
G1 X73.758 Y68.845 E7.90678
G1 X73.943 Y68.821 E7.91929
G1 X81.924 Y60.841 E8.67746
G1 X82.685 Y60.841 E8.72862
G1 X74.781 Y68.745 E9.47954
G1 X75.340 Y68.745 E9.51712
G1 X75.520 Y68.768 E9.52927
G1 X83.447 Y60.841 E10.28234
G1 X84.209 Y60.841 E10.33350
G1 X76.189 Y68.860 E11.09535
G1 X76.795 Y69.016 E11.13738
G1 X84.970 Y60.841 E11.91400
G1 X85.732 Y60.841 E11.96516
G1 X77.351 Y69.222 E12.76133
G1 X77.636 Y69.335 E12.78192
G1 X77.871 Y69.464 E12.79992
G1 X86.493 Y60.841 E13.61907
G1 X87.255 Y60.841 E13.67023
G1 X78.359 Y69.737 E14.51533
G1 X78.800 Y70.058 E14.55196
G1 X88.017 Y60.841 E15.42750
G1 X88.778 Y60.841 E15.47866
G1 X79.212 Y70.407 E16.38743
G1 X79.599 Y70.782 E16.42361
G1 X89.540 Y60.841 E17.36801
G1 X90.301 Y60.841 E17.41917
G1 X79.942 Y71.201 E18.40332
G1 X80.073 Y71.361 E18.41725
G1 X80.256 Y71.649 E18.44011
G1 X91.063 Y60.841 E19.46680
G1 X91.825 Y60.841 E19.51796
G1 X80.540 Y72.126 E20.59001
G1 X80.783 Y72.644 E20.62846
G1 X92.586 Y60.842 E21.74971
G1 X93.348 Y60.842 E21.80087
G1 X80.979 Y73.210 E22.97584
