; generated by Slic3r 1.3.1-dev on 2020-09-15 at 21:07:19

; external perimeters extrusion width = 0.44mm (2.78mm^3/s)
; perimeters extrusion width = 0.40mm (7.14mm^3/s)
; infill extrusion width = 0.50mm (10.97mm^3/s)
; solid infill extrusion width = 0.60mm (6.68mm^3/s)
; top infill extrusion width = 0.40mm (2.14mm^3/s)

M107
M104 S230 ; set temperature
G28 ; home all axes
G1 X-10 Y50 Z20 F10000
; Filament gcode

M109 S230 ; set temperature and wait for it to be reached
G21 ; set units to millimeters
G90 ; use absolute coordinates
M82 ; use absolute distances for extrusion
G92 E0
G1 E-6.00000 F3000.00000
G92 E0
G1 Z1.000 F30000.000
G1 X14.723 Y59.665 F30000.000
G1 Z0.300 F30000.000
G1 E6.00000 F3000.00000
G1 F2100
G1 X15.400 Y59.547 E6.04590
G1 X15.911 Y59.515 E6.08011
G1 X134.089 Y59.515 E13.97504
G1 X134.600 Y59.547 E14.00924
G1 X135.277 Y59.665 E14.05514
G1 X135.937 Y59.867 E14.10127
G1 X136.720 Y60.236 E14.15912
G1 X137.296 Y60.615 E14.20517
G1 X137.690 Y60.941 E14.23929
G1 X138.169 Y61.434 E14.28525
G1 X138.584 Y61.987 E14.33142
G1 X139.001 Y62.744 E14.38917
G1 X139.245 Y63.391 E14.43535
G1 X139.405 Y64.060 E14.48132
G1 X139.469 Y64.566 E14.51537
G1 X139.488 Y65.002 E14.54450
G1 X139.488 Y84.998 E15.88040
G1 X139.469 Y85.434 E15.90953
G1 X139.371 Y86.115 E15.95545
G1 X139.189 Y86.781 E16.00159
G1 X139.001 Y87.256 E16.03573
G1 X138.680 Y87.863 E16.08161
G1 X138.283 Y88.429 E16.12778
G1 X137.690 Y89.059 E16.18561
G1 X137.181 Y89.469 E16.22921
G1 X136.720 Y89.764 E16.26578
G1 X135.937 Y90.133 E16.32364
G1 X135.277 Y90.335 E16.36976
G1 X134.600 Y90.453 E16.41566
G1 X134.089 Y90.485 E16.44986
G1 X15.911 Y90.485 E24.34479
G1 X15.400 Y90.453 E24.37899
G1 X14.723 Y90.335 E24.42490
G1 X14.063 Y90.133 E24.47102
G1 X13.279 Y89.763 E24.52893
G1 X12.820 Y89.470 E24.56530
G1 X12.310 Y89.060 E24.60904
G1 X11.717 Y88.429 E24.66687
G1 X11.320 Y87.863 E24.71305
G1 X10.999 Y87.256 E24.75892
G1 X10.811 Y86.781 E24.79305
G1 X10.595 Y85.940 E24.85105
G1 X10.531 Y85.434 E24.88510
G1 X10.512 Y84.998 E24.91424
G1 X10.512 Y65.002 E26.25014
G1 X10.531 Y64.566 E26.27928
G1 X10.595 Y64.060 E26.31333
G1 X10.755 Y63.392 E26.35924
G1 X10.999 Y62.744 E26.40547
G1 X11.416 Y61.987 E26.46323
G1 X11.831 Y61.434 E26.50938
G1 X12.180 Y61.062 E26.54349
G1 X12.703 Y60.616 E26.58940
G1 X13.279 Y60.237 E26.63547
G1 X13.897 Y59.933 E26.68146
G1 X14.665 Y59.680 E26.73549
G1 X14.856 Y60.184 F30000.000
G1 F2100
G1 X15.467 Y60.078 E26.77692
G1 X15.911 Y60.050 E26.80663
G1 X134.089 Y60.050 E34.70155
G1 X134.533 Y60.078 E34.73126
G1 X135.144 Y60.184 E34.77268
G1 X135.740 Y60.365 E34.81430
G1 X136.462 Y60.706 E34.86766
G1 X136.982 Y61.048 E34.90922
G1 X137.323 Y61.331 E34.93885
G1 X137.756 Y61.776 E34.98033
G1 X138.132 Y62.274 E35.02199
G1 X138.516 Y62.972 E35.07526
G1 X138.735 Y63.556 E35.11692
G1 X138.879 Y64.160 E35.15840
G1 X138.934 Y64.600 E35.18798
G1 X138.952 Y65.002 E35.21485
G1 X138.952 Y84.998 E36.55075
G1 X138.934 Y85.400 E36.57762
G1 X138.845 Y86.014 E36.61907
G1 X138.680 Y86.615 E36.66070
G1 X138.516 Y87.028 E36.69035
G1 X138.227 Y87.576 E36.73176
G1 X137.870 Y88.087 E36.77341
G1 X137.323 Y88.669 E36.82675
G1 X136.866 Y89.035 E36.86587
G1 X136.462 Y89.294 E36.89794
G1 X135.740 Y89.635 E36.95130
G1 X135.144 Y89.816 E36.99292
G1 X134.533 Y89.922 E37.03434
G1 X134.089 Y89.950 E37.06405
G1 X15.911 Y89.950 E44.95897
G1 X15.467 Y89.922 E44.98868
G1 X14.856 Y89.816 E45.03011
G1 X14.260 Y89.635 E45.07172
G1 X13.537 Y89.294 E45.12513
G1 X13.135 Y89.036 E45.15703
G1 X12.677 Y88.669 E45.19626
G1 X12.130 Y88.087 E45.24961
G1 X11.773 Y87.576 E45.29127
G1 X11.484 Y87.028 E45.33267
G1 X11.321 Y86.615 E45.36231
G1 X11.121 Y85.840 E45.41580
G1 X11.066 Y85.400 E45.44538
G1 X11.048 Y84.998 E45.47226
G1 X11.048 Y65.002 E46.80816
G1 X11.066 Y64.600 E46.83504
G1 X11.121 Y64.160 E46.86461
G1 X11.265 Y63.557 E46.90604
G1 X11.484 Y62.972 E46.94775
G1 X11.868 Y62.274 E47.00103
G1 X12.244 Y61.776 E47.04268
G1 X12.547 Y61.453 E47.07229
G1 X13.018 Y61.049 E47.11373
G1 X13.537 Y60.706 E47.15530
G1 X14.094 Y60.431 E47.19680
G1 X14.798 Y60.199 E47.24632
G1 X15.052 Y60.945 F30000.000
G1 F2100
G1 X15.304 Y60.892 E47.26566
G1 X15.824 Y60.837 E47.30476
G1 X18.176 Y60.837 E47.48078
G1 X18.696 Y60.892 E47.51988
G1 X19.203 Y61.010 E47.55884
G1 X19.696 Y61.194 E47.59826
G1 X20.159 Y61.436 E47.63738
G1 X20.524 Y61.688 E47.67054
G1 X20.619 Y61.719 E47.67801
G1 X129.381 Y61.719 E55.81724
G1 X129.476 Y61.688 E55.82470
G1 X129.841 Y61.436 E55.85787
G1 X130.304 Y61.194 E55.89699
G1 X130.797 Y61.010 E55.93639
G1 X131.304 Y60.892 E55.97537
G1 X131.824 Y60.837 E56.01446
G1 X134.176 Y60.837 E56.19048
G1 X134.865 Y60.924 E56.24245
G1 X135.369 Y61.064 E56.28161
G1 X135.696 Y61.194 E56.30793
G1 X136.159 Y61.436 E56.34705
G1 X136.589 Y61.735 E56.38625
G1 X137.096 Y62.211 E56.43825
G1 X137.421 Y62.621 E56.47742
G1 X137.693 Y63.069 E56.51666
G1 X137.841 Y63.385 E56.54277
G1 X137.934 Y63.636 E56.56277
G1 X138.057 Y64.048 E56.59499
G1 X138.122 Y64.391 E56.62107
G1 X138.166 Y64.959 E56.66370
G1 X138.166 Y85.041 E58.16659
G1 X138.144 Y85.437 E58.19627
G1 X138.057 Y85.952 E58.23530
G1 X137.841 Y86.615 E58.28750
G1 X137.610 Y87.082 E58.32652
G1 X137.421 Y87.379 E58.35286
G1 X137.096 Y87.789 E58.39202
G1 X136.589 Y88.265 E58.44404
G1 X136.305 Y88.471 E58.47032
G1 X135.852 Y88.733 E58.50944
G1 X135.369 Y88.936 E58.54867
G1 X134.865 Y89.076 E58.58779
G1 X134.176 Y89.163 E58.63980
G1 X131.824 Y89.163 E58.81580
G1 X131.304 Y89.108 E58.85492
G1 X130.797 Y88.990 E58.89390
G1 X130.304 Y88.806 E58.93330
G1 X129.841 Y88.564 E58.97239
G1 X129.476 Y88.312 E59.00556
G1 X129.381 Y88.281 E59.01303
G1 X20.619 Y88.281 E67.15226
G1 X20.524 Y88.312 E67.15973
G1 X20.159 Y88.564 E67.19289
G1 X19.696 Y88.806 E67.23199
G1 X19.203 Y88.990 E67.27140
G1 X18.696 Y89.108 E67.31037
G1 X18.176 Y89.163 E67.34950
G1 X15.824 Y89.163 E67.52550
G1 X15.134 Y89.076 E67.57753
G1 X14.631 Y88.936 E67.61663
G1 X14.304 Y88.806 E67.64298
G1 X13.841 Y88.564 E67.68210
G1 X13.277 Y88.154 E67.73424
G1 X13.022 Y87.915 E67.76036
G1 X12.682 Y87.521 E67.79936
G1 X12.390 Y87.082 E67.83878
G1 X12.095 Y86.454 E67.89070
G1 X11.986 Y86.118 E67.91712
G1 X11.878 Y85.609 E67.95613
G1 X11.834 Y85.041 E67.99869
G1 X11.834 Y64.959 E69.50160
G1 X11.878 Y64.392 E69.54415
G1 X11.986 Y63.882 E69.58317
G1 X12.159 Y63.385 E69.62251
G1 X12.390 Y62.918 E69.66154
G1 X12.579 Y62.621 E69.68787
G1 X12.904 Y62.211 E69.72701
G1 X13.410 Y61.736 E69.77899
G1 X13.840 Y61.436 E69.81821
G1 X14.304 Y61.194 E69.85734
G1 X14.631 Y61.064 E69.88368
G1 X14.993 Y60.960 E69.91190
G1 X15.201 Y61.526 F30000.000
G1 F2100
G1 X15.398 Y61.484 E69.92701
G1 X15.843 Y61.437 E69.96048
G1 X18.157 Y61.437 E70.13366
G1 X18.602 Y61.484 E70.16713
G1 X19.036 Y61.587 E70.20049
G1 X19.458 Y61.745 E70.23421
G1 X19.854 Y61.953 E70.26771
G1 X20.308 Y62.281 E70.30966
G1 X20.412 Y62.319 E70.31789
G1 X129.588 Y62.319 E78.48816
G1 X129.692 Y62.281 E78.49639
G1 X130.146 Y61.953 E78.53835
G1 X130.542 Y61.745 E78.57184
G1 X130.964 Y61.587 E78.60555
G1 X131.398 Y61.484 E78.63892
G1 X131.843 Y61.437 E78.67239
G1 X134.157 Y61.437 E78.84556
G1 X134.734 Y61.510 E78.88910
G1 X135.166 Y61.629 E78.92262
G1 X135.458 Y61.745 E78.94610
G1 X135.854 Y61.953 E78.97959
G1 X136.221 Y62.209 E79.01314
G1 X136.646 Y62.608 E79.05669
G1 X136.925 Y62.958 E79.09022
G1 X137.093 Y63.223 E79.11370
G1 X137.291 Y63.624 E79.14712
G1 X137.437 Y64.048 E79.18076
G1 X137.546 Y64.619 E79.22425
G1 X137.566 Y64.968 E79.25039
G1 X137.566 Y85.032 E80.75187
G1 X137.546 Y85.381 E80.77801
G1 X137.471 Y85.821 E80.81143
G1 X137.291 Y86.376 E80.85514
G1 X137.093 Y86.777 E80.88855
G1 X136.925 Y87.042 E80.91204
G1 X136.646 Y87.392 E80.94556
G1 X136.221 Y87.791 E80.98914
G1 X135.854 Y88.047 E81.02268
G1 X135.458 Y88.255 E81.05614
G1 X135.166 Y88.371 E81.07965
G1 X134.734 Y88.490 E81.11314
G1 X134.157 Y88.563 E81.15670
G1 X131.843 Y88.563 E81.32987
G1 X131.266 Y88.490 E81.37343
G1 X130.834 Y88.371 E81.40692
G1 X130.420 Y88.198 E81.44049
G1 X130.032 Y87.975 E81.47398
G1 X129.692 Y87.719 E81.50587
G1 X129.588 Y87.681 E81.51410
G1 X20.412 Y87.681 E89.68437
G1 X20.308 Y87.719 E89.69260
G1 X19.854 Y88.047 E89.73456
G1 X19.458 Y88.255 E89.76803
G1 X19.036 Y88.413 E89.80174
G1 X18.602 Y88.516 E89.83512
G1 X18.157 Y88.563 E89.86861
G1 X15.843 Y88.563 E90.04177
G1 X15.265 Y88.490 E90.08535
G1 X14.834 Y88.371 E90.11882
G1 X14.542 Y88.255 E90.14233
G1 X14.146 Y88.047 E90.17581
G1 X13.674 Y87.704 E90.21948
G1 X13.447 Y87.491 E90.24281
G1 X13.156 Y87.152 E90.27620
G1 X12.907 Y86.777 E90.30993
G1 X12.660 Y86.251 E90.35342
G1 X12.562 Y85.951 E90.37698
G1 X12.471 Y85.514 E90.41038
G1 X12.434 Y85.032 E90.44659
G1 X12.434 Y64.968 E91.94809
G1 X12.454 Y64.620 E91.97420
G1 X12.562 Y64.049 E92.01769
G1 X12.709 Y63.624 E92.05134
G1 X12.907 Y63.223 E92.08476
G1 X13.075 Y62.958 E92.10825
G1 X13.354 Y62.608 E92.14176
G1 X13.778 Y62.210 E92.18530
G1 X14.146 Y61.953 E92.21886
G1 X14.542 Y61.745 E92.25236
G1 X14.834 Y61.629 E92.27586
G1 X15.143 Y61.541 E92.29985
G1 X15.350 Y62.108 F30000.000
G1 F2100
G1 X15.862 Y62.037 E92.33854
G1 X18.138 Y62.037 E92.50887
G1 X18.508 Y62.077 E92.53672
G1 X18.963 Y62.194 E92.57184
G1 X19.307 Y62.337 E92.59975
G1 X19.630 Y62.522 E92.62761
G1 X19.854 Y62.684 E92.64826
G1 X20.065 Y62.874 E92.66958
G1 X20.177 Y62.919 E92.67857
G1 X129.823 Y62.919 E100.88397
G1 X129.935 Y62.874 E100.89296
G1 X130.147 Y62.684 E100.91430
G1 X130.370 Y62.522 E100.93492
G1 X130.693 Y62.337 E100.96278
G1 X131.037 Y62.194 E100.99069
G1 X131.492 Y62.077 E101.02583
G1 X131.862 Y62.037 E101.05367
G1 X134.138 Y62.037 E101.22400
G1 X134.603 Y62.096 E101.25910
G1 X134.963 Y62.194 E101.28698
G1 X135.219 Y62.296 E101.30762
G1 X135.548 Y62.470 E101.33548
G1 X135.853 Y62.684 E101.36338
G1 X136.195 Y63.005 E101.39849
G1 X136.428 Y63.296 E101.42638
G1 X136.576 Y63.529 E101.44702
G1 X136.740 Y63.862 E101.47483
G1 X136.861 Y64.216 E101.50279
G1 X136.949 Y64.676 E101.53786
G1 X136.966 Y64.977 E101.56044
G1 X136.966 Y85.023 E103.06053
G1 X136.949 Y85.324 E103.08312
G1 X136.885 Y85.690 E103.11093
G1 X136.740 Y86.138 E103.14615
G1 X136.576 Y86.471 E103.17396
G1 X136.428 Y86.704 E103.19461
G1 X136.195 Y86.995 E103.22249
G1 X135.853 Y87.316 E103.25761
G1 X135.548 Y87.530 E103.28550
G1 X135.219 Y87.704 E103.31334
G1 X134.963 Y87.806 E103.33401
G1 X134.604 Y87.904 E103.36186
G1 X134.138 Y87.963 E103.39698
G1 X131.862 Y87.963 E103.56730
G1 X131.396 Y87.904 E103.60242
G1 X131.037 Y87.806 E103.63028
G1 X130.693 Y87.663 E103.65820
G1 X130.370 Y87.478 E103.68606
G1 X130.147 Y87.316 E103.70667
G1 X129.935 Y87.126 E103.72802
G1 X129.823 Y87.081 E103.73701
G1 X20.177 Y87.081 E111.94240
G1 X20.065 Y87.126 E111.95140
G1 X19.854 Y87.316 E111.97271
G1 X19.630 Y87.478 E111.99338
G1 X19.307 Y87.663 E112.02122
G1 X18.963 Y87.806 E112.04914
G1 X18.508 Y87.923 E112.08426
G1 X18.138 Y87.963 E112.11211
G1 X15.862 Y87.963 E112.28243
G1 X15.396 Y87.904 E112.31757
G1 X15.037 Y87.806 E112.34541
G1 X14.781 Y87.704 E112.36607
G1 X14.452 Y87.530 E112.39393
G1 X14.071 Y87.254 E112.42912
G1 X13.871 Y87.066 E112.44965
G1 X13.630 Y86.784 E112.47744
G1 X13.424 Y86.471 E112.50546
G1 X13.224 Y86.047 E112.54054
G1 X13.139 Y85.784 E112.56124
G1 X13.063 Y85.420 E112.58903
G1 X13.034 Y85.023 E112.61888
G1 X13.034 Y64.977 E114.11898
G1 X13.051 Y64.676 E114.14154
G1 X13.139 Y64.216 E114.17661
G1 X13.260 Y63.862 E114.20459
G1 X13.424 Y63.529 E114.23239
G1 X13.572 Y63.296 E114.25304
G1 X13.805 Y63.005 E114.28091
G1 X14.146 Y62.684 E114.31601
G1 X14.452 Y62.470 E114.34393
G1 X14.781 Y62.296 E114.37178
G1 X15.037 Y62.194 E114.39244
G1 X15.292 Y62.122 E114.41221
G1 X15.499 Y62.689 F30000.000
G1 F2100
G1 X15.881 Y62.637 E114.44106
G1 X18.119 Y62.637 E114.60854
G1 X18.414 Y62.670 E114.63076
G1 X18.759 Y62.759 E114.65744
G1 X18.981 Y62.846 E114.67525
G1 X19.243 Y62.986 E114.69748
G1 X19.531 Y63.196 E114.72420
G1 X19.792 Y63.459 E114.75188
G1 X19.919 Y63.519 E114.76241
G1 X130.081 Y63.519 E123.00635
G1 X130.208 Y63.459 E123.01689
G1 X130.469 Y63.196 E123.04457
G1 X130.757 Y62.986 E123.07129
G1 X131.019 Y62.846 E123.09351
G1 X131.241 Y62.759 E123.11132
G1 X131.527 Y62.681 E123.13356
G1 X131.881 Y62.637 E123.16022
G1 X134.119 Y62.637 E123.32771
G1 X134.414 Y62.670 E123.34992
G1 X134.759 Y62.759 E123.37661
G1 X135.034 Y62.872 E123.39886
G1 X135.293 Y63.018 E123.42110
G1 X135.485 Y63.158 E123.43889
G1 X135.745 Y63.402 E123.46556
G1 X135.932 Y63.633 E123.48780
G1 X136.059 Y63.834 E123.50560
G1 X136.189 Y64.101 E123.52780
G1 X136.284 Y64.383 E123.55009
G1 X136.351 Y64.733 E123.57674
G1 X136.366 Y64.987 E123.59578
G1 X136.366 Y85.013 E125.09446
G1 X136.344 Y85.327 E125.11798
G1 X136.284 Y85.617 E125.14015
G1 X136.211 Y85.844 E125.15798
G1 X136.059 Y86.166 E125.18463
G1 X135.896 Y86.416 E125.20696
G1 X135.745 Y86.598 E125.22468
G1 X135.532 Y86.804 E125.24688
G1 X135.243 Y87.014 E125.27360
G1 X134.946 Y87.167 E125.29861
G1 X134.702 Y87.260 E125.31812
G1 X134.473 Y87.319 E125.33584
G1 X134.119 Y87.363 E125.36252
G1 X131.881 Y87.363 E125.53000
G1 X131.527 Y87.319 E125.55668
G1 X131.241 Y87.241 E125.57890
G1 X131.019 Y87.153 E125.59672
G1 X130.757 Y87.014 E125.61893
G1 X130.468 Y86.804 E125.64566
G1 X130.208 Y86.541 E125.67333
G1 X130.081 Y86.481 E125.68387
G1 X19.919 Y86.481 E133.92781
G1 X19.792 Y86.541 E133.93835
G1 X19.532 Y86.804 E133.96602
G1 X19.243 Y87.014 E133.99275
G1 X18.981 Y87.153 E134.01496
G1 X18.759 Y87.241 E134.03279
G1 X18.473 Y87.319 E134.05500
G1 X18.119 Y87.363 E134.08168
G1 X15.881 Y87.363 E134.24916
G1 X15.586 Y87.330 E134.27139
G1 X15.241 Y87.241 E134.29806
G1 X15.019 Y87.153 E134.31588
G1 X14.815 Y87.045 E134.33319
G1 X14.515 Y86.842 E134.36033
G1 X14.255 Y86.598 E134.38699
G1 X14.068 Y86.367 E134.40923
G1 X13.941 Y86.166 E134.42704
G1 X13.789 Y85.844 E134.45369
G1 X13.716 Y85.617 E134.47153
G1 X13.656 Y85.326 E134.49372
G1 X13.634 Y85.013 E134.51720
G1 X13.634 Y64.987 E136.01590
G1 X13.649 Y64.733 E136.03493
G1 X13.716 Y64.383 E136.06157
G1 X13.811 Y64.101 E136.08387
G1 X13.941 Y63.834 E136.10606
G1 X14.068 Y63.633 E136.12387
G1 X14.255 Y63.402 E136.14611
G1 X14.515 Y63.158 E136.17277
G1 X14.757 Y62.986 E136.19503
G1 X15.019 Y62.846 E136.21725
G1 X15.441 Y62.704 E136.25056
G1 X15.648 Y63.270 F30000.000
G1 F2100
G1 X15.900 Y63.237 E136.26957
G1 X18.100 Y63.237 E136.43421
G1 X18.342 Y63.267 E136.45244
G1 X18.556 Y63.324 E136.46903
G1 X18.742 Y63.397 E136.48401
G1 X18.956 Y63.515 E136.50223
G1 X19.117 Y63.632 E136.51720
G1 X19.280 Y63.783 E136.53378
G1 X19.480 Y64.041 E136.55818
G1 X19.621 Y64.119 E136.57029
G1 X130.379 Y64.119 E144.85885
G1 X130.520 Y64.041 E144.87096
G1 X130.720 Y63.783 E144.89536
G1 X130.883 Y63.632 E144.91195
G1 X131.044 Y63.515 E144.92690
G1 X131.258 Y63.397 E144.94514
G1 X131.444 Y63.324 E144.96010
G1 X131.658 Y63.267 E144.97670
G1 X131.900 Y63.237 E144.99493
G1 X134.100 Y63.237 E145.15957
G1 X134.320 Y63.263 E145.17616
G1 X134.556 Y63.324 E145.19439
G1 X134.762 Y63.407 E145.21100
G1 X134.956 Y63.515 E145.22760
G1 X135.117 Y63.632 E145.24255
G1 X135.295 Y63.799 E145.26078
G1 X135.435 Y63.971 E145.27739
G1 X135.542 Y64.140 E145.29235
G1 X135.638 Y64.340 E145.30894
G1 X135.708 Y64.550 E145.32555
G1 X135.754 Y64.789 E145.34377
G1 X135.766 Y64.996 E145.35927
G1 X135.766 Y85.004 E146.85655
G1 X135.751 Y85.232 E146.87369
G1 X135.708 Y85.450 E146.89027
G1 X135.646 Y85.640 E146.90524
G1 X135.542 Y85.860 E146.92347
G1 X135.422 Y86.047 E146.94010
G1 X135.295 Y86.201 E146.95504
G1 X135.134 Y86.354 E146.97162
G1 X134.937 Y86.497 E146.98986
G1 X134.600 Y86.659 E147.01788
G1 X134.342 Y86.733 E147.03795
G1 X134.100 Y86.763 E147.05618
G1 X131.900 Y86.763 E147.22082
G1 X131.658 Y86.733 E147.23905
G1 X131.444 Y86.676 E147.25564
G1 X131.258 Y86.603 E147.27062
G1 X131.044 Y86.485 E147.28885
G1 X130.883 Y86.368 E147.30380
G1 X130.720 Y86.217 E147.32039
G1 X130.520 Y85.959 E147.34479
G1 X130.379 Y85.881 E147.35690
G1 X19.621 Y85.881 E155.64546
G1 X19.480 Y85.959 E155.65756
G1 X19.280 Y86.217 E155.68197
G1 X19.117 Y86.368 E155.69855
G1 X18.956 Y86.485 E155.71352
G1 X18.742 Y86.603 E155.73174
G1 X18.556 Y86.676 E155.74672
