; generated by Slic3r 1.3.1-dev on 2020-09-15 at 17:55:59

; external perimeters extrusion width = 0.44mm (2.78mm^3/s)
; perimeters extrusion width = 0.40mm (7.14mm^3/s)
; infill extrusion width = 0.50mm (10.97mm^3/s)
; solid infill extrusion width = 0.60mm (6.68mm^3/s)
; top infill extrusion width = 0.40mm (2.14mm^3/s)

M107
M104 S230 ; set temperature
G28 ; home all axes
G1 X-10 Y50 Z20 F10000
; Filament gcode

M109 S230 ; set temperature and wait for it to be reached
G21 ; set units to millimeters
G90 ; use absolute coordinates
M82 ; use absolute distances for extrusion
G92 E0
G1 E-6.00000 F3000.00000
G92 E0
G1 Z1.000 F30000.000
G1 X25.897 Y59.933 F30000.000
G1 Z0.300 F30000.000
G1 E6.00000 F3000.00000
G1 F2100
G1 X26.723 Y59.665 E6.05799
G1 X27.400 Y59.547 E6.10390
G1 X27.911 Y59.515 E6.13810
G1 X122.089 Y59.515 E12.42970
G1 X122.777 Y59.569 E12.47578
G1 X123.449 Y59.709 E12.52168
G1 X124.103 Y59.933 E12.56784
G1 X124.721 Y60.237 E12.61384
G1 X125.297 Y60.615 E12.65986
G1 X125.820 Y61.062 E12.70583
G1 X126.169 Y61.434 E12.73994
G1 X126.584 Y61.987 E12.78609
G1 X127.001 Y62.744 E12.84385
G1 X127.245 Y63.392 E12.89009
G1 X127.405 Y64.060 E12.93598
G1 X127.469 Y64.566 E12.97003
G1 X127.488 Y65.002 E12.99918
G1 X127.488 Y84.998 E14.33508
G1 X127.469 Y85.434 E14.36422
G1 X127.405 Y85.940 E14.39827
G1 X127.245 Y86.608 E14.44417
G1 X127.001 Y87.256 E14.49041
G1 X126.584 Y88.013 E14.54816
G1 X126.169 Y88.566 E14.59431
G1 X125.820 Y88.938 E14.62842
G1 X125.296 Y89.385 E14.67440
G1 X124.690 Y89.781 E14.72279
G1 X123.937 Y90.133 E14.77831
G1 X123.277 Y90.335 E14.82443
G1 X122.600 Y90.453 E14.87033
G1 X122.089 Y90.485 E14.90454
G1 X27.911 Y90.485 E21.19613
G1 X27.224 Y90.431 E21.24221
G1 X26.551 Y90.291 E21.28811
G1 X25.897 Y90.067 E21.33431
G1 X25.311 Y89.781 E21.37784
G1 X24.849 Y89.491 E21.41428
G1 X24.310 Y89.059 E21.46040
G1 X23.717 Y88.429 E21.51823
G1 X23.320 Y87.863 E21.56441
G1 X22.999 Y87.256 E21.61028
G1 X22.811 Y86.781 E21.64439
G1 X22.595 Y85.940 E21.70241
G1 X22.531 Y85.434 E21.73646
G1 X22.512 Y84.998 E21.76560
G1 X22.512 Y65.002 E23.10150
G1 X22.531 Y64.566 E23.13063
G1 X22.595 Y64.060 E23.16469
G1 X22.755 Y63.392 E23.21058
G1 X22.999 Y62.744 E23.25683
G1 X23.320 Y62.137 E23.30271
G1 X23.717 Y61.571 E23.34888
G1 X24.180 Y61.062 E23.39486
G1 X24.703 Y60.615 E23.44081
G1 X25.279 Y60.237 E23.48684
G1 X25.843 Y59.959 E23.52886
G1 X26.095 Y60.431 F30000.000
G1 F2100
G1 X26.856 Y60.184 E23.58235
G1 X27.467 Y60.078 E23.62378
G1 X27.911 Y60.050 E23.65348
G1 X122.089 Y60.050 E29.94508
G1 X122.533 Y60.078 E29.97478
G1 X123.144 Y60.184 E30.01621
G1 X123.740 Y60.365 E30.05783
G1 X124.463 Y60.706 E30.11123
G1 X124.982 Y61.048 E30.15275
G1 X125.453 Y61.453 E30.19424
G1 X125.756 Y61.776 E30.22386
G1 X126.132 Y62.274 E30.26550
G1 X126.516 Y62.972 E30.31878
G1 X126.735 Y63.557 E30.36050
G1 X126.879 Y64.160 E30.40192
G1 X126.934 Y64.600 E30.43149
G1 X126.952 Y65.002 E30.45837
G1 X126.952 Y84.998 E31.79427
G1 X126.934 Y85.400 E31.82116
G1 X126.845 Y86.014 E31.86260
G1 X126.682 Y86.607 E31.90363
G1 X126.516 Y87.028 E31.93387
G1 X126.132 Y87.726 E31.98715
G1 X125.756 Y88.224 E32.02879
G1 X125.453 Y88.547 E32.05841
G1 X124.982 Y88.952 E32.09990
G1 X124.432 Y89.311 E32.14380
G1 X123.740 Y89.635 E32.19483
G1 X123.144 Y89.816 E32.23644
G1 X122.533 Y89.922 E32.27786
G1 X122.089 Y89.950 E32.30757
G1 X27.911 Y89.950 E38.59917
G1 X27.467 Y89.922 E38.62887
G1 X26.856 Y89.816 E38.67030
G1 X26.260 Y89.635 E38.71191
G1 X25.537 Y89.294 E38.76532
G1 X25.135 Y89.036 E38.79723
G1 X24.677 Y88.669 E38.83646
G1 X24.130 Y88.087 E38.88980
G1 X23.773 Y87.576 E38.93147
G1 X23.484 Y87.028 E38.97287
G1 X23.321 Y86.615 E39.00249
G1 X23.121 Y85.840 E39.05600
G1 X23.066 Y85.400 E39.08557
G1 X23.048 Y84.998 E39.11245
G1 X23.048 Y65.002 E40.44835
G1 X23.066 Y64.600 E40.47523
G1 X23.155 Y63.986 E40.51667
G1 X23.320 Y63.385 E40.55827
G1 X23.560 Y62.811 E40.59982
G1 X23.868 Y62.273 E40.64124
G1 X24.244 Y61.776 E40.68288
G1 X24.677 Y61.331 E40.72437
G1 X25.164 Y60.943 E40.76596
G1 X25.537 Y60.706 E40.79550
G1 X26.040 Y60.457 E40.83303
G1 X26.384 Y61.162 F30000.000
G1 F2100
G1 X26.797 Y61.010 E40.86597
G1 X27.135 Y60.924 E40.89203
G1 X27.650 Y60.848 E40.93103
G1 X30.350 Y60.848 E41.13305
G1 X30.865 Y60.924 E41.17204
G1 X31.369 Y61.064 E41.21118
G1 X31.852 Y61.267 E41.25040
G1 X32.159 Y61.436 E41.27664
G1 X32.524 Y61.688 E41.30979
G1 X32.619 Y61.719 E41.31726
G1 X117.381 Y61.719 E47.66045
G1 X117.476 Y61.688 E47.66792
G1 X117.840 Y61.436 E47.70106
G1 X118.304 Y61.194 E47.74020
G1 X118.797 Y61.010 E47.77961
G1 X119.304 Y60.892 E47.81857
G1 X119.824 Y60.837 E47.85767
G1 X122.176 Y60.837 E48.03369
G1 X122.865 Y60.924 E48.08569
G1 X123.369 Y61.064 E48.12482
G1 X123.696 Y61.194 E48.15114
G1 X124.160 Y61.436 E48.19029
G1 X124.589 Y61.735 E48.22944
G1 X125.096 Y62.211 E48.28146
G1 X125.421 Y62.621 E48.32063
G1 X125.693 Y63.070 E48.35990
G1 X125.841 Y63.385 E48.38598
G1 X125.934 Y63.636 E48.40599
G1 X126.057 Y64.048 E48.43821
G1 X126.122 Y64.391 E48.46428
G1 X126.166 Y64.959 E48.50692
G1 X126.166 Y85.041 E50.00980
G1 X126.144 Y85.437 E50.03949
G1 X126.057 Y85.952 E50.07851
G1 X125.905 Y86.454 E50.11779
G1 X125.610 Y87.082 E50.16973
G1 X125.318 Y87.521 E50.20915
G1 X124.977 Y87.916 E50.24821
G1 X124.723 Y88.154 E50.27431
G1 X124.160 Y88.564 E50.32641
G1 X123.852 Y88.733 E50.35266
G1 X123.609 Y88.841 E50.37258
G1 X123.203 Y88.990 E50.40495
G1 X122.866 Y89.076 E50.43099
G1 X122.176 Y89.163 E50.48302
G1 X119.824 Y89.163 E50.65902
G1 X119.304 Y89.108 E50.69814
G1 X118.797 Y88.990 E50.73711
G1 X118.304 Y88.806 E50.77651
G1 X117.840 Y88.564 E50.81564
G1 X117.476 Y88.312 E50.84878
G1 X117.381 Y88.281 E50.85625
G1 X32.619 Y88.281 E57.19944
G1 X32.524 Y88.312 E57.20691
G1 X32.159 Y88.564 E57.24006
G1 X31.696 Y88.806 E57.27917
G1 X31.203 Y88.990 E57.31857
G1 X30.696 Y89.108 E57.35755
G1 X30.176 Y89.163 E57.39667
G1 X27.824 Y89.163 E57.57267
G1 X27.134 Y89.076 E57.62470
G1 X26.631 Y88.936 E57.66380
G1 X26.304 Y88.806 E57.69015
G1 X25.841 Y88.564 E57.72927
G1 X25.277 Y88.154 E57.78141
G1 X25.022 Y87.915 E57.80753
G1 X24.682 Y87.521 E57.84654
G1 X24.390 Y87.082 E57.88596
G1 X24.095 Y86.454 E57.93787
G1 X23.986 Y86.118 E57.96430
G1 X23.878 Y85.609 E58.00330
G1 X23.834 Y85.041 E58.04586
G1 X23.834 Y64.959 E59.54878
G1 X23.856 Y64.563 E59.57843
G1 X23.986 Y63.882 E59.63032
G1 X24.159 Y63.385 E59.66966
G1 X24.390 Y62.918 E59.70869
G1 X24.682 Y62.479 E59.74810
G1 X25.022 Y62.085 E59.78710
G1 X25.410 Y61.735 E59.82618
G1 X25.840 Y61.436 E59.86539
G1 X26.328 Y61.184 E59.90649
G1 X26.605 Y61.720 F30000.000
G1 F2100
G1 X26.964 Y61.587 E59.93515
G1 X27.266 Y61.510 E59.95842
G1 X27.707 Y61.445 E59.99182
G1 X30.293 Y61.445 E60.18532
G1 X30.602 Y61.484 E60.20862
G1 X31.036 Y61.587 E60.24199
G1 X31.458 Y61.745 E60.27570
G1 X31.854 Y61.953 E60.30920
G1 X32.308 Y62.281 E60.35115
G1 X32.412 Y62.319 E60.35938
G1 X117.588 Y62.319 E66.73360
G1 X117.692 Y62.281 E66.74183
G1 X118.146 Y61.953 E66.78378
G1 X118.542 Y61.745 E66.81729
G1 X118.964 Y61.587 E66.85100
G1 X119.398 Y61.484 E66.88436
G1 X119.843 Y61.437 E66.91783
G1 X122.157 Y61.437 E67.09101
G1 X122.735 Y61.510 E67.13457
G1 X123.166 Y61.629 E67.16806
G1 X123.458 Y61.745 E67.19154
G1 X123.854 Y61.953 E67.22505
G1 X124.221 Y62.209 E67.25856
G1 X124.646 Y62.608 E67.30213
G1 X124.925 Y62.958 E67.33566
G1 X125.093 Y63.223 E67.35915
G1 X125.291 Y63.624 E67.39256
G1 X125.438 Y64.049 E67.42622
G1 X125.546 Y64.619 E67.46969
G1 X125.566 Y64.968 E67.49584
G1 X125.566 Y85.032 E68.99732
G1 X125.546 Y85.381 E69.02346
G1 X125.471 Y85.821 E69.05687
G1 X125.340 Y86.250 E69.09048
G1 X125.093 Y86.777 E69.13399
G1 X124.844 Y87.152 E69.16772
G1 X124.646 Y87.392 E69.19101
G1 X124.326 Y87.704 E69.22447
G1 X123.854 Y88.047 E69.26810
G1 X123.388 Y88.283 E69.30718
G1 X123.036 Y88.413 E69.33527
G1 X122.735 Y88.490 E69.35854
G1 X122.157 Y88.563 E69.40212
G1 X119.843 Y88.563 E69.57528
G1 X119.265 Y88.490 E69.61886
G1 X118.834 Y88.371 E69.65233
G1 X118.420 Y88.198 E69.68590
G1 X118.032 Y87.975 E69.71939
G1 X117.692 Y87.719 E69.75129
G1 X117.588 Y87.681 E69.75952
G1 X32.412 Y87.681 E76.13374
G1 X32.308 Y87.719 E76.14197
G1 X31.854 Y88.047 E76.18392
G1 X31.458 Y88.255 E76.21740
G1 X31.036 Y88.413 E76.25111
G1 X30.602 Y88.516 E76.28449
G1 X30.157 Y88.563 E76.31798
G1 X27.843 Y88.563 E76.49114
G1 X27.265 Y88.490 E76.53472
G1 X26.834 Y88.371 E76.56819
G1 X26.542 Y88.255 E76.59170
G1 X26.146 Y88.047 E76.62518
G1 X25.674 Y87.704 E76.66885
G1 X25.447 Y87.491 E76.69218
G1 X25.156 Y87.152 E76.72557
G1 X24.907 Y86.776 E76.75930
G1 X24.660 Y86.251 E76.80279
G1 X24.562 Y85.951 E76.82635
G1 X24.471 Y85.514 E76.85975
G1 X24.434 Y85.032 E76.89595
G1 X24.434 Y64.968 E78.39746
G1 X24.454 Y64.620 E78.42357
G1 X24.562 Y64.049 E78.46705
G1 X24.709 Y63.624 E78.50071
G1 X24.907 Y63.223 E78.53412
G1 X25.156 Y62.848 E78.56784
G1 X25.447 Y62.509 E78.60123
G1 X25.778 Y62.210 E78.63469
G1 X26.146 Y61.953 E78.66824
G1 X26.549 Y61.742 E78.70231
G1 X26.826 Y62.278 F30000.000
G1 F2100
G1 X27.131 Y62.164 E78.72668
G1 X27.396 Y62.096 E78.74718
G1 X27.764 Y62.043 E78.77496
G1 X30.236 Y62.043 E78.95995
G1 X30.508 Y62.077 E78.98046
G1 X30.869 Y62.164 E79.00823
G1 X31.219 Y62.296 E79.03625
G1 X31.630 Y62.522 E79.07136
G1 X31.854 Y62.684 E79.09201
G1 X32.065 Y62.874 E79.11333
G1 X32.177 Y62.919 E79.12232
G1 X117.823 Y62.919 E85.53167
G1 X117.935 Y62.874 E85.54066
G1 X118.147 Y62.684 E85.56201
G1 X118.370 Y62.522 E85.58262
G1 X118.693 Y62.337 E85.61049
G1 X119.037 Y62.194 E85.63840
G1 X119.492 Y62.077 E85.67352
G1 X119.862 Y62.037 E85.70137
G1 X122.138 Y62.037 E85.87170
G1 X122.604 Y62.096 E85.90682
G1 X122.963 Y62.194 E85.93468
G1 X123.219 Y62.296 E85.95532
G1 X123.548 Y62.470 E85.98319
G1 X123.853 Y62.684 E86.01106
G1 X124.195 Y63.005 E86.04619
G1 X124.428 Y63.296 E86.07407
G1 X124.576 Y63.529 E86.09472
G1 X124.740 Y63.862 E86.12253
G1 X124.861 Y64.216 E86.15050
G1 X124.949 Y64.676 E86.18555
G1 X124.966 Y64.977 E86.20815
G1 X124.966 Y85.023 E87.70823
G1 X124.949 Y85.324 E87.73082
G1 X124.885 Y85.690 E87.75862
G1 X124.776 Y86.047 E87.78657
G1 X124.576 Y86.471 E87.82165
G1 X124.370 Y86.784 E87.84968
G1 X124.195 Y86.995 E87.87018
G1 X123.928 Y87.254 E87.89802
G1 X123.548 Y87.530 E87.93319
G1 X123.307 Y87.663 E87.95379
G1 X123.041 Y87.775 E87.97535
G1 X122.604 Y87.904 E88.00952
G1 X122.138 Y87.963 E88.04465
G1 X119.862 Y87.963 E88.21497
G1 X119.396 Y87.904 E88.25010
G1 X119.037 Y87.806 E88.27795
G1 X118.693 Y87.663 E88.30586
G1 X118.370 Y87.478 E88.33372
G1 X118.147 Y87.316 E88.35433
G1 X117.935 Y87.126 E88.37569
G1 X117.823 Y87.081 E88.38468
G1 X32.177 Y87.081 E94.79403
G1 X32.065 Y87.126 E94.80302
G1 X31.854 Y87.316 E94.82433
G1 X31.630 Y87.478 E94.84500
G1 X31.307 Y87.663 E94.87284
G1 X30.963 Y87.806 E94.90076
G1 X30.508 Y87.923 E94.93588
G1 X30.138 Y87.963 E94.96373
G1 X27.862 Y87.963 E95.13406
G1 X27.396 Y87.904 E95.16919
G1 X27.037 Y87.806 E95.19703
G1 X26.781 Y87.704 E95.21769
G1 X26.452 Y87.530 E95.24555
G1 X26.071 Y87.254 E95.28074
G1 X25.871 Y87.066 E95.30127
G1 X25.630 Y86.784 E95.32906
G1 X25.424 Y86.471 E95.35709
G1 X25.224 Y86.047 E95.39216
G1 X25.139 Y85.784 E95.41286
G1 X25.063 Y85.420 E95.44065
G1 X25.034 Y85.023 E95.47049
G1 X25.034 Y64.977 E96.97060
G1 X25.051 Y64.676 E96.99317
G1 X25.115 Y64.310 E97.02098
G1 X25.224 Y63.953 E97.04892
G1 X25.377 Y63.614 E97.07674
G1 X25.572 Y63.296 E97.10467
G1 X25.805 Y63.005 E97.13254
G1 X26.071 Y62.746 E97.16037
G1 X26.370 Y62.522 E97.18831
G1 X26.771 Y62.300 E97.22258
G1 X27.047 Y62.835 F30000.000
G1 F2100
G1 X27.298 Y62.740 E97.24267
G1 X27.527 Y62.681 E97.26038
G1 X27.881 Y62.637 E97.28705
G1 X30.119 Y62.637 E97.45453
G1 X30.414 Y62.670 E97.47675
G1 X30.759 Y62.759 E97.50343
G1 X30.981 Y62.846 E97.52124
G1 X31.243 Y62.986 E97.54347
G1 X31.531 Y63.196 E97.57019
G1 X31.792 Y63.459 E97.59787
G1 X31.919 Y63.519 E97.60841
G1 X118.081 Y63.519 E104.05629
G1 X118.208 Y63.459 E104.06683
G1 X118.469 Y63.196 E104.09453
G1 X118.757 Y62.986 E104.12123
G1 X119.019 Y62.846 E104.14346
G1 X119.241 Y62.759 E104.16127
G1 X119.586 Y62.670 E104.18795
G1 X119.881 Y62.637 E104.21016
G1 X122.119 Y62.637 E104.37765
G1 X122.473 Y62.681 E104.40433
G1 X122.759 Y62.759 E104.42655
G1 X122.981 Y62.846 E104.44436
G1 X123.243 Y62.986 E104.46659
G1 X123.485 Y63.158 E104.48882
G1 X123.745 Y63.402 E104.51550
G1 X123.932 Y63.633 E104.53775
G1 X124.059 Y63.834 E104.55555
G1 X124.189 Y64.101 E104.57775
G1 X124.284 Y64.383 E104.60005
G1 X124.351 Y64.733 E104.62668
G1 X124.366 Y64.987 E104.64572
G1 X124.366 Y85.013 E106.14441
G1 X124.351 Y85.267 E106.16345
G1 X124.299 Y85.559 E106.18564
G1 X124.189 Y85.899 E106.21238
G1 X124.059 Y86.166 E106.23457
G1 X123.932 Y86.367 E106.25238
G1 X123.745 Y86.598 E106.27462
G1 X123.485 Y86.842 E106.30131
G1 X123.185 Y87.045 E106.32841
G1 X122.981 Y87.154 E106.34574
G1 X122.759 Y87.241 E106.36356
G1 X122.414 Y87.330 E106.39023
G1 X122.119 Y87.363 E106.41245
G1 X119.881 Y87.363 E106.57994
G1 X119.527 Y87.319 E106.60662
G1 X119.241 Y87.241 E106.62883
G1 X119.019 Y87.154 E106.64665
G1 X118.757 Y87.014 E106.66887
G1 X118.469 Y86.804 E106.69558
G1 X118.208 Y86.541 E106.72327
G1 X118.081 Y86.481 E106.73381
G1 X31.919 Y86.481 E113.18170
G1 X31.792 Y86.541 E113.19224
G1 X31.532 Y86.804 E113.21991
G1 X31.243 Y87.014 E113.24663
G1 X30.981 Y87.153 E113.26885
G1 X30.759 Y87.241 E113.28667
G1 X30.414 Y87.330 E113.31334
G1 X30.119 Y87.363 E113.33557
G1 X27.881 Y87.363 E113.50305
G1 X27.527 Y87.319 E113.52973
G1 X27.241 Y87.241 E113.55195
G1 X27.019 Y87.153 E113.56977
G1 X26.757 Y87.014 E113.59199
G1 X26.468 Y86.804 E113.61871
G1 X26.296 Y86.642 E113.63644
G1 X26.104 Y86.416 E113.65863
G1 X25.941 Y86.166 E113.68096
G1 X25.789 Y85.844 E113.70760
G1 X25.716 Y85.617 E113.72544
G1 X25.656 Y85.326 E113.74763
G1 X25.634 Y85.013 E113.77112
G1 X25.635 Y64.957 E115.27204
G1 X25.656 Y64.674 E115.29330
G1 X25.701 Y64.441 E115.31104
G1 X25.789 Y64.157 E115.33331
G1 X25.912 Y63.887 E115.35552
G1 X26.068 Y63.633 E115.37779
G1 X26.255 Y63.402 E115.40002
G1 X26.469 Y63.196 E115.42223
G1 X26.707 Y63.018 E115.44451
G1 X26.992 Y62.859 E115.46892
G1 X27.268 Y63.393 F30000.000
G1 F2100
G1 X27.658 Y63.267 E115.49960
G1 X27.900 Y63.237 E115.51783
G1 X30.100 Y63.237 E115.68248
G1 X30.320 Y63.263 E115.69907
G1 X30.556 Y63.324 E115.71730
G1 X30.762 Y63.407 E115.73391
G1 X30.956 Y63.515 E115.75050
G1 X31.117 Y63.632 E115.76546
G1 X31.280 Y63.783 E115.78205
G1 X31.480 Y64.041 E115.80645
G1 X31.621 Y64.119 E115.81856
G1 X118.379 Y64.119 E122.31106
G1 X118.520 Y64.041 E122.32317
G1 X118.720 Y63.783 E122.34758
G1 X118.883 Y63.632 E122.36417
G1 X119.044 Y63.515 E122.37912
G1 X119.258 Y63.397 E122.39735
G1 X119.444 Y63.324 E122.41232
G1 X119.658 Y63.267 E122.42892
G1 X119.900 Y63.237 E122.44714
G1 X122.100 Y63.237 E122.61179
G1 X122.342 Y63.267 E122.63002
G1 X122.556 Y63.324 E122.64661
G1 X122.742 Y63.397 E122.66158
G1 X122.937 Y63.503 E122.67817
G1 X123.117 Y63.632 E122.69477
G1 X123.295 Y63.799 E122.71300
G1 X123.435 Y63.971 E122.72960
G1 X123.542 Y64.140 E122.74457
G1 X123.638 Y64.340 E122.76115
G1 X123.713 Y64.572 E122.77941
G1 X123.766 Y64.985 E122.81062
G1 X123.766 Y85.004 E124.30871
G1 X123.754 Y85.211 E124.32421
G1 X123.713 Y85.428 E124.34079
G1 X123.638 Y85.660 E124.35904
G1 X123.542 Y85.860 E124.37563
G1 X123.435 Y86.029 E124.39059
G1 X123.295 Y86.201 E124.40720
G1 X123.117 Y86.368 E124.42543
G1 X122.896 Y86.520 E124.44550
G1 X122.556 Y86.676 E124.47352
G1 X122.320 Y86.737 E124.49175
G1 X122.100 Y86.763 E124.50834
G1 X119.900 Y86.763 E124.67298
G1 X119.658 Y86.733 E124.69122
G1 X119.444 Y86.676 E124.70781
G1 X119.258 Y86.603 E124.72278
G1 X119.044 Y86.485 E124.74101
G1 X118.883 Y86.368 E124.75596
G1 X118.720 Y86.217 E124.77255
G1 X118.520 Y85.959 E124.79696
G1 X118.379 Y85.881 E124.80906
G1 X31.621 Y85.881 E131.30157
G1 X31.480 Y85.959 E131.31368
G1 X31.280 Y86.217 E131.33808
G1 X31.117 Y86.368 E131.35466
G1 X30.956 Y86.485 E131.36963
G1 X30.742 Y86.603 E131.38786
G1 X30.556 Y86.676 E131.40283
G1 X30.342 Y86.733 E131.41942
G1 X30.100 Y86.763 E131.43765
G1 X27.900 Y86.763 E131.60229
